X:421
T:St. Catherine's Pipe Band #2 
C:Joe Buchanan's Scottish Tome - Page 385.2-386.1
I:385 2
C:Capt. Hugh MacPherson
Z:Carl Allison
R:March
L:1/8
M:2/4
K:A
e | "A"AA/>B/ "Ea"cB/>A/ | "A"c/>A/c/>e/ "Da"fe/>f/ | "A"aA "Ea"f/>e/c/>A/ | "B7"cB "E7"Be |
"A"AA/>B/ "Ea"cB/>A/ | "A"c/>A/c/>e/ "Ea"fe/>f/ | "F#m"aA "E7"f/>e/c/>B/ | "A"cA A :|
f/>g/ | "A"a/>g/f/>e/ "Ea"ae | "D"fe/>c/ "Ea"fe/>f/ | "A"aA "Ea"f/>e/c/>A/ | "B7"cB "E7"Bg |
"A"a/>g/f/>e/ "Ea"aA | "C#d"fe/>c/ "F#m"fe/>f/ | "F#m"aA "E7"f/>e/c/>B/ | "A"cA A :|
W:Errata: Changed two "Fm" chords in the third line to "F#m" chords.

